svgs/regular/file-xmark.svg

<svg xmlns="http://www.w3.org/2000/svg" viewBox="0 0 384 512"><!--! Font Awesome Pro 6.0.0-alpha3 by @fontawesome - https://fontawesome.com License - https://fontawesome.com/license (Commercial License) --><path d="M365.3 93.38l-74.63-74.64C278.6 6.742 262.3 0 245.4 0H64C28.66 0 0 28.65 0 64l.0065 384c0 35.34 28.65 64 64 64H320c35.2 0 64-28.8 64-64V138.6C384 121.7 377.3 105.4 365.3 93.38zM336 448c0 8.836-7.164 16-16 16H64.02c-8.836 0-16-7.164-16-16L48 64.13c0-8.836 7.164-16 16-16h160L224 128c0 17.67 14.33 32 32 32H336V448zM239 239L192 286.1L144.1 239c-9.375-9.375-24.56-9.375-33.94 0s-9.375 24.56 0 33.94L158.1 320l-47.03 47.03c-9.375 9.375-9.375 24.56 0 33.94c9.375 9.371 24.55 9.379 33.94 0L192 353.9l47.03 47.03c9.375 9.371 24.55 9.379 33.94 0c9.375-9.375 9.375-24.56 0-33.94L225.9 320l47.03-47.03c9.375-9.375 9.375-24.56 0-33.94S248.4 229.7 239 239z"/></svg>

<svg xmlns="http://www.w3.org/2000/svg" viewBox="0 0 384 512"><!-- Font Awesome Pro 6.0.0-alpha2 by @fontawesome - https://fontawesome.com License - https://fontawesome.com/license (Commercial License) --><path d="M365.258 93.383L290.625 18.746C278.625 6.742 262.348 0 245.375 0H64C28.656 0 0 28.652 0 64L0.02 448C0.02 483.344 28.672 512 64.02 512H320C355.199 512 384 483.199 384 448V138.641C384 121.664 377.258 105.383 365.258 93.383ZM336 448C336 456.836 328.836 464 320 464H64.016C55.18 464 48.016 456.836 48.016 448L48 64.125C48 55.289 55.164 48.125 64 48.125H224.008V128C224.008 145.672 238.336 160 256.008 160H336V448ZM239.031 239.031L192 286.062L144.969 239.031C135.594 229.656 120.406 229.656 111.031 239.031S101.656 263.594 111.031 272.969L158.062 320L111.031 367.031C101.656 376.406 101.656 391.594 111.031 400.969C120.406 410.34 135.586 410.348 144.969 400.969L192 353.938L239.031 400.969C248.406 410.34 263.586 410.348 272.969 400.969C282.344 391.594 282.344 376.406 272.969 367.031L225.938 320L272.969 272.969C282.344 263.594 282.344 248.406 272.969 239.031S248.406 229.656 239.031 239.031Z"/></svg>
